icons/lines/hierarchy-square-three.svg

<svg xmlns="http://www.w3.org/2000/svg" width="24" height="24" viewBox="0 0 24 24" fill="none" stroke="currentColor" stroke-width="2" stroke-linecap="round" stroke-linejoin="round" >
  <path d="M7.7998 13.8V9.60001"/>
  <path d="M7.95001 18C9.02697 18 9.90002 17.1269 9.90002 16.05C9.90002 14.973 9.02697 14.1 7.95001 14.1C6.87306 14.1 6 14.973 6 16.05C6 17.1269 6.87306 18 7.95001 18Z"/>
  <path d="M7.79999 9.60001C8.7941 9.60001 9.59998 8.7941 9.59998 7.79999C9.59998 6.80588 8.7941 6 7.79999 6C6.80588 6 6 6.80588 6 7.79999C6 8.7941 6.80588 9.60001 7.79999 9.60001Z"/>
  <path d="M16.2004 9.60001C17.1945 9.60001 18.0004 8.7941 18.0004 7.79999C18.0004 6.80588 17.1945 6 16.2004 6C15.2063 6 14.4004 6.80588 14.4004 7.79999C14.4004 8.7941 15.2063 9.60001 16.2004 9.60001Z"/>
  <path d="M7.87988 13.8C8.14988 12.75 9.10987 11.97 10.2399 11.98L12.2999 11.99C13.8699 12 15.2099 10.99 15.6999 9.57999"/>
  <path d="M9 2H15C20 2 22 4 22 9V15C22 20 20 22 15 22H9C4 22 2 20 2 15V9C2 4 4 2 9 2Z"/>
  </svg>

<svg xmlns="http://www.w3.org/2000/svg" width="24" height="24" viewBox="0 0 24 24" fill="none" stroke="currentColor" stroke-width="2" stroke-linecap="round" stroke-linejoin="round">
  <path d="M15 2c5 0 7 2 7 7v6c0 5-2 7-7 7H9c-5 0-7-2-7-7V9c0-5 2-7 7-7z" />
  <path d="M7.8 13.8V9.6" />
  <path d="M7.88 13.8a2.425 2.425 0 0 1 2.36-1.82l2.06.01a3.58 3.58 0 0 0 3.4-2.41" />
  <circle cx="16.2" cy="7.8" r="1.8" />
  <circle cx="7.8" cy="7.8" r="1.8" />
  <circle cx="7.95" cy="16.05" r="2" />
</svg>
